icons/svg/icons8/dog.svg

<svg width="26" height="26" viewBox="0 0 26 26" fill="none" xmlns="http://www.w3.org/2000/svg">
<path d="M1.30997 7.093C1.15397 6.386 0.90597 5.118 1.16597 5.039C1.53197 4.93 1.80297 5.61 2.11397 6.247C2.40797 6.85 3.07197 8.417 3.07197 8.417C3.07197 8.417 3.43797 8.299 4.70497 8.299C5.96997 8.299 7.25397 8.945 9.00597 8.945C11.382 8.945 15.36 7.883 17.645 5.325C18.575 4.282 19.054 3.316 19.967 2.71C20.43 1.19 20.86 0.246002 20.86 0.246002C20.86 0.246002 21.398 0.658002 21.359 1.75C21.338 2.318 21.111 2.526 20.968 2.75C22.411 2.75 23.103 5.279 24.506 5.279C25.073 5.279 25.704 5.3 25.704 5.3C25.704 5.3 26.081 5.331 25.776 5.981C25.776 6.235 25.76 6.738 25.404 7.328C24.94 8.097 24.364 8.135 23.682 8.135C23 8.135 22.489 7.409 21.709 7.409C20.929 7.409 19.721 8.745 19.957 10.378C20.301 12.732 20.074 14.346 19.563 16.072C19.177 17.378 19.24 18.31 19.183 19.571C19.043 22.718 20.268 24.749 19.708 24.818C19.235 24.877 18.097 24.6 17.642 20.676C17.421 18.761 17.675 16.333 17.435 16.387C16.997 16.484 16.91 19.465 16.804 21.249C16.719 22.702 18.378 25.901 17.4 25.901C16.833 25.901 15.265 23.767 15.164 21.008C15.099 19.214 15.17 16.358 15.12 15.957C10.787 15.957 9.42197 14.087 7.58197 14.087C7.58197 15.006 7.61097 15.985 6.45297 17.648C4.97697 19.768 7.65697 24.899 6.63497 24.899C5.61397 24.899 4.58997 22.583 4.34597 20.587C4.10297 18.591 4.73797 18.31 4.16797 17.826C3.89797 19.254 3.21897 19.458 3.09997 21.18C2.98297 22.867 4.26597 25.886 3.49397 25.886C2.30597 25.886 1.20497 22.263 1.20497 20.269C1.20497 18.331 2.25497 18.799 2.23897 16.996C2.23097 15.973 1.17097 15.66 1.17097 12.573C1.17097 10.529 1.85097 9.432 1.85097 9.432C1.85097 9.432 1.43897 7.685 1.30997 7.093Z" fill="#333333"/>
</svg>

<?xml version="1.0" encoding="utf-8"?>
<!-- Generator: Adobe Illustrator 15.0.0, SVG Export Plug-In . SVG Version: 6.00 Build 0)  -->
<!DOCTYPE svg PUBLIC "-//W3C//DTD SVG 1.1//EN" "http://www.w3.org/Graphics/SVG/1.1/DTD/svg11.dtd">
<svg version="1.1" id="Layer_1" xmlns="http://www.w3.org/2000/svg" xmlns:xlink="http://www.w3.org/1999/xlink" x="0px" y="0px"
	 width="26px" height="26px" viewBox="0 0 26 26" enable-background="new 0 0 26 26" xml:space="preserve">
<rect fill="none" width="26" height="26"/>
<path fill="#333333" d="M1.31,7.093C1.154,6.386,0.906,5.118,1.166,5.039C1.532,4.93,1.803,5.61,2.114,6.247
	c0.294,0.603,0.958,2.17,0.958,2.17s0.366-0.118,1.633-0.118c1.265,0,2.549,0.646,4.301,0.646c2.376,0,6.354-1.062,8.639-3.62
	c0.93-1.043,1.409-2.009,2.322-2.615C20.43,1.19,20.86,0.246,20.86,0.246s0.538,0.412,0.499,1.504c-0.021,0.568-0.248,0.776-0.391,1
	c1.443,0,2.135,2.529,3.538,2.529c0.567,0,1.198,0.021,1.198,0.021s0.377,0.031,0.072,0.681c0,0.254-0.016,0.757-0.372,1.347
	c-0.464,0.769-1.04,0.807-1.722,0.807s-1.193-0.726-1.973-0.726s-1.988,1.336-1.752,2.969c0.344,2.354,0.117,3.968-0.394,5.694
	c-0.386,1.306-0.323,2.238-0.38,3.499c-0.14,3.147,1.085,5.178,0.525,5.247c-0.473,0.059-1.611-0.218-2.066-4.142
	c-0.221-1.915,0.033-4.343-0.207-4.289c-0.438,0.097-0.525,3.078-0.631,4.862c-0.085,1.453,1.574,4.652,0.596,4.652
	c-0.567,0-2.135-2.134-2.236-4.893c-0.065-1.794,0.006-4.65-0.044-5.051c-4.333,0-5.698-1.87-7.538-1.87
	c0,0.919,0.029,1.898-1.129,3.561c-1.476,2.12,1.204,7.251,0.182,7.251c-1.021,0-2.045-2.316-2.289-4.312
	c-0.243-1.996,0.392-2.277-0.178-2.761c-0.27,1.428-0.949,1.632-1.068,3.354c-0.117,1.687,1.166,4.706,0.394,4.706
	c-1.188,0-2.289-3.623-2.289-5.617c0-1.938,1.05-1.47,1.034-3.273c-0.008-1.023-1.068-1.336-1.068-4.423
	c0-2.044,0.68-3.141,0.68-3.141S1.439,7.685,1.31,7.093z"/>
</svg>
